Adwaita++/status/16/folder-open.svg

<svg height="16" width="16" xmlns="http://www.w3.org/2000/svg">
  <g fill="#474747">
    <path d="m1 1a1 1 0 0 0 -1 1v11s-.014.459.23.947c.246.489.938 1.053 1.77 1.053h1.832a1 1 0 0 0 .326 0h9.842s.459.014.947-.23c.489-.245 1.053-.937 1.053-1.77v-4a1 1 0 0 0 -1-1h-11a1 1 0 0 0 -1 1v4h-1v-10h3.586l1.707 1.707a1 1 0 0 0 .707.293h-1a1 1 0 1 0 0 2h6a1 1 0 0 0 1-1v-2a1 1 0 0 0 -1-1h-4.586l-1.707-1.707a1 1 0 0 0 -.707-.293zm4 9h9v3h-9z" fill-rule="evenodd"/>
    <path d="m1 8h1s0-1 1-1h8l-5-5h-5z" fill-rule="evenodd"/>
    <path d="m4 9h11v5h-11zm9-3h1v1h-1zm2 2h1v1h-1zm-12 0h1v1h-1z"/>
  </g>
</svg>

<svg xmlns="http://www.w3.org/2000/svg" width="16" height="16">
    <g fill="#474747">
        <path d="M1 1a1 1 0 0 0-1 1v11s-.014.459.23.947C.476 14.436 1.168 15 2 15h1.832a1 1 0 0 0 .326 0H14s.459.014.947-.23C15.436 14.525 16 13.833 16 13V9a1 1 0 0 0-1-1H4a1 1 0 0 0-1 1v4H2V3h3.586l1.707 1.707A1 1 0 0 0 8 5H7a1 1 0 1 0 0 2h6a1 1 0 0 0 1-1V4a1 1 0 0 0-1-1H8.414L6.707 1.293A1 1 0 0 0 6 1zm4 9h9v3H5z" style="line-height:normal;font-variant-ligatures:normal;font-variant-position:normal;font-variant-caps:normal;font-variant-numeric:normal;font-variant-alternates:normal;font-feature-settings:normal;text-indent:0;text-align:start;text-decoration-line:none;text-decoration-style:solid;text-decoration-color:#000;text-transform:none;text-orientation:mixed;shape-padding:0;isolation:auto;mix-blend-mode:normal" color="#000" font-weight="400" font-family="sans-serif" white-space="normal" overflow="visible" fill-rule="evenodd"/>
        <path d="M1 8h1s0-1 1-1h8L6 2H1z" fill-rule="evenodd"/>
        <path d="M4 9h11v5H4zM13 6h1v1h-1zM15 8h1v1h-1zM3 8h1v1H3z"/>
    </g>
</svg>
